components/Common/Svg/svgs/chat.svg

<svg width="40" height="40" viewBox="0 0 40 40" fill="none" xmlns="http://www.w3.org/2000/svg">
<path fill-rule="evenodd" clip-rule="evenodd" d="M17.8618 6.19526C17.9868 6.07024 18.1564 6 18.3332 6H33.3332C33.51 6 33.6796 6.07024 33.8046 6.19526C33.9296 6.32029 33.9998 6.48985 33.9998 6.66667V20.9191L30.7069 17.6262C30.5194 17.4387 30.2651 17.3333 29.9998 17.3333H18.3332C18.1564 17.3333 17.9868 17.2631 17.8618 17.1381C17.7367 17.013 17.6665 16.8435 17.6665 16.6667V6.66667C17.6665 6.48986 17.7367 6.32029 17.8618 6.19526ZM18.3332 4C17.6259 4 16.9476 4.28095 16.4476 4.78105C15.9475 5.28115 15.6665 5.95942 15.6665 6.66667V16.6667C15.6665 17.3739 15.9475 18.0522 16.4476 18.5523C16.9476 19.0524 17.6259 19.3333 18.3332 19.3333H29.5856L34.2927 24.0404C34.5787 24.3264 35.0089 24.412 35.3825 24.2572C35.7562 24.1024 35.9998 23.7378 35.9998 23.3333V6.66667C35.9998 5.95942 35.7189 5.28115 35.2188 4.78105C34.7187 4.28095 34.0404 4 33.3332 4H18.3332ZM6.19526 17.8619C6.32029 17.7369 6.48986 17.6667 6.66667 17.6667H10C10.5523 17.6667 11 17.219 11 16.6667C11 16.1144 10.5523 15.6667 10 15.6667H6.66667C5.95942 15.6667 5.28115 15.9476 4.78105 16.4477C4.28095 16.9478 4 17.6261 4 18.3333V35C4 35.4045 4.24364 35.7691 4.61732 35.9239C4.99099 36.0787 5.42111 35.9931 5.70711 35.7071L10.4142 31H21.6667C22.3739 31 23.0522 30.7191 23.5523 30.219C24.0524 29.7189 24.3333 29.0406 24.3333 28.3333V25C24.3333 24.4477 23.8856 24 23.3333 24C22.781 24 22.3333 24.4477 22.3333 25V28.3333C22.3333 28.5101 22.2631 28.6797 22.1381 28.8047C22.013 28.9298 21.8435 29 21.6667 29H10C9.73478 29 9.48043 29.1054 9.29289 29.2929L6 32.5858V18.3333C6 18.1565 6.07024 17.987 6.19526 17.8619Z" fill="#161616"/>
</svg>

<svg width="40" height="40" viewBox="0 0 40 40" fill="none" xmlns="http://www.w3.org/2000/svg"><path fill-rule="evenodd" clip-rule="evenodd" d="M17.862 6.195A.667.667 0 0 1 18.333 6h15a.667.667 0 0 1 .667.667v14.252l-3.293-3.293a1 1 0 0 0-.707-.293H18.333a.667.667 0 0 1-.666-.666v-10c0-.177.07-.347.195-.472ZM18.333 4a2.666 2.666 0 0 0-2.666 2.667v10a2.667 2.667 0 0 0 2.666 2.666h11.253l4.707 4.707A1 1 0 0 0 36 23.333V6.667A2.667 2.667 0 0 0 33.333 4h-15ZM6.195 17.862a.667.667 0 0 1 .472-.195H10a1 1 0 1 0 0-2H6.667A2.667 2.667 0 0 0 4 18.333V35a1 1 0 0 0 1.707.707L10.414 31h11.253a2.667 2.667 0 0 0 2.666-2.667V25a1 1 0 1 0-2 0v3.333a.667.667 0 0 1-.666.667H10a1 1 0 0 0-.707.293L6 32.586V18.333c0-.176.07-.346.195-.471Z" fill="#161616"/></svg>
